X:25
T: Verd meg, Isten azt az apát
K: F
M: 4/4
L: 1/4
g/d/ d d/B/ B | d<d f2 | 
g/d/ d d/B/ B | d<c B2 | 
d/c/d/c/ B/A/G/F/ | G<A B2 | 
d/c/d/c/B/A/G/F/ | A<G G2 | 

